X:1
T:Когда волнуется желтеющая нива...
T:Когда волнуется желтеющая нива...
T:Н.А. Римский-Корсаков
T:М.Ю. Лермонтов
C:Н.А. Римский-Корсаков
Z:М.Ю. Лермонтов
%%score [ ( 1 2 ) ( 3 4 ) ]
L:1/8
Q:1/4=63
M:4/4
K:D
V:1 treble nm="S\nA"
V:2 treble 
V:3 bass nm="T\nB"
V:4 bass 
V:1
 z8 | z8 | z4 z2"^dolce" A2 | B6 B2 | e3 e d3 d | c4- c d B c | A2 A z z4 | z8 | z8 | z4 z2 z E | %10
w: ||Ко-|гда вол-|ну- ет- ся жел-|те- * ю- ща- я|ни- ва,|||и|
 G F E B A2 z E | G F E B A2 A z | z2 z"^poco cresc." A A3 B | G A F G E B ^A B | %14
w: пря- чет- ся в са- ду ма-|ли- но- ва- я сли- ва|под те- нью|сла- дост- ной зе- лё- но- го лист-|
!>(! c2- c!>)! z z4 | z F d c B3 F | A ^G A B c2 F F | =c3 B A3/2 E/ E E | G F G A B2- B z | %19
w: ка; *|ког- да ро- сой о-|брыз- ган- ный ду- шис- той, ру-|мя- ным ве- че- ром иль|ут- ра в час зла- той, *|
 z ^G B c A3 =G | F G A B G2 G d | c d B c A d c d | e2- e z z4 | z8 | z4 z2 A2 | B6 B2 | %26
w: из- под кус- та мне|лан- дыш се- ре- бри- стый при-|вет- ли- во ки- ва- ет го- ло-|вой; *||ко-|гда сту-|
 e3 e d3 d | c4- c d B c | A4- A z z2 | z A c d B3 c | A3 A G A F G | E2- E z z4 | %32
w: дё- ный ключ иг-|ра- * ет по ов-|ра- гу|и, по- гру- жа- я|мысль в ка- кой- то смут- ный|сон *|
 z2 z B A3/2 E/ E E | G F E B A2 A z | z A G A F3 F | F G E F D2- D z | z8 | z8 | z4 z G G G | %39
w: ле- пе- чет мне та-|ин- ствен- ну- ю са- гу|про мир- ный край, от-|ку- да мчит- ся он; *|||то- гда рас-|
 A3/2 A/ A A B B A G | =c2- c z z2 z G |"^cresc. ed espressivo assai" E F G B e3 d | %42
w: хо- дят- ся мор- щи- ны на че-|ле, * и|сча- стье я мо- гу по-|
 c d B c A2- A z | z4 z!p! A G F |"^cresc." B6 B2 | c6 c2 |!>(! e8!>)! |!p! d2- d z z4 | z8 | z8 | %50
w: стиг- нуть на зем- ле, *|и в не- бе-|сах я|ви- жу|Бо-|га!.. *|||
 z8 | z8 | z8 |] %53
w: |||
V:2
 x8 | x8 | x8 | x8 | x8 | x8 | x8 | x8 | x8 | x7 E | G F E E G2 x E | G F E E E2 E x | x3 ^D D3 D | %13
w: |||||||||||||
 E E D D E E E E | E2- E x5 | x F F F F3 F | =F F F F ^F2 E E | E3 E E3/2 E/ E E | %18
w: |||||
 _E E E E =E2- E x | x ^E E E =E3 E | ^D D D D =D2 G G | E E [CE] [CE] D D F F | B2- B x5 | x8 | %24
w: ||||||
 x8 | z8 | z8 | z8 | z8 | x A c d B3 c | A3 A G A F G | E2- E x5 | x3 E C3/2 C/ C C | %33
w: |||||||||
 D D D E E2 E x | x _E E E D3 D | D D D D =C2- C x | z4 z D =C B, | E3/2 E/ E E F F E D | %38
w: |||То- гда сми-|ря- ет- ся ду- ши мо- ей тре-|
 A2 G z x G G G | A3/2 A/ A A B B A G | =c2- c x4 G | E E E E [EG]3 [EG] | %42
w: во- га, * * *||||
 [EG] [EG] [EG] [EG] F2- F x | x5 A G F | G6 G2 | A6 A2 | A8 | A2- A x5 | x8 | x8 | x8 | x8 | x8 |] %53
w: |||||||||||
V:3
 z8 | z8 | z8 | z8 | z8 | z8 | z8 | z A, C D B,3 C | A,3 A, G, A, F, G, | E,4 z2 z E, | %10
w: |||||||и све- жий лес шу-|мит при зву- ке ве- тер-|ка *|
 G, F, E, G, C2 z E, | G, F, E, G, C2 C z | z2 z"_poco cresc." =C C3 C | B, G, A, A, B, B, B, B, | %14
w: ||||
!>(! B,2- B,!>)! z z4 | z F, D D D3 D | D D D D C2 C C | =C3 C C3/2 C/ C C | =C C C C B,2- B, z | %19
w: |||||
 z C C B, =C3 C | B, B, B, B, _B,2 D D | C C A, A, A, A, D D | D2- D z z4 | z8 | z4 z2 A,2 | %25
w: ||||||
 B,6 B,2 | E3 E D3 D | C4- C D B, C | A,4- A, z z2 | z A, C D B,3 C | A,3 A, G, A, F, G, | %31
w: ||||||
 E,2- E, z z4 | z2 z B, A,3/2 A,/ A, A, | B, B, B, D C2 C z | z =C C C C3 C | =C C C C A,2- A, z | %36
w: |||||
 z8 | z8 | z4 z G, G, G, | A,3/2 A,/ A, A, B, B, A, G, | =C2- C z z2 z G, | B, B, D D C3 D | %42
w: ||||||
 C C C C C2- C z | z4 z!p! A, G, F, |"_cresc." D6 D2 | E6 E2 |!>(! C8!>)! |!p! D2- D z z4 | z8 | %49
w: |||||||
 z8 | z8 | z8 | z8 |] %53
w: ||||
V:4
 x8 | x8 | x8 | x8 | x8 | x8 | x8 | x8 | x8 | x7 E, | G, F, E, G, A,2 x E, | G, F, E, G, G,2 G, x | %12
 x3 G, F,3 F, | E, E, F, F, G, G, G, G, | F,2- F, x5 | x F, B, B, B,3 B, | B, B, B, B, A,2 A, A, | %17
 A,3 A, A,3/2 A,/ A, A, | A, A, A, A, G,2- G, x | x B, B, ^G, A,3 A, | A, A, A, A, G,2 _B, B, | %21
 A, A, G, G, F, F, G, G, | ^G,2- G, x5 | x8 | x6 z2 | z8 | z8 | z8 | z8 | x A, C D B,3 C | %30
 A,3 A, G, A, F, G, | E,2- E, x5 | x3 G, G,3/2 G,/ G, G, | C, D, E, E, E,2 E, x | %34
 x G, A, G, A,3 A, | A, A, A, A, F,2- F, x | z4 z D, =C, B,, | E,3/2 E,/ E, E, F, F, E, D, | %38
 A,2 G, z x G, G, G, | A,3/2 A,/ A, A, B, B, A, G, | =C2- C x4 G, | G, G, B, G, B,3 B, | %42
 A, A, A, A, A,2- A, x | x5 A, G, F, | E,6 E,2 | G,6 G,2 | F,8 | F,2- F, x5 | x8 | x8 | x8 | x8 | %52
 x8 |] %53

